X: 39860
T: This Is My Love, Do You Like Her?
R: jig
M: 6/8
K: Adorian
M:12/8
|:ABc AGE c2 B c2 d|efg edB g2 g gfg|
eaf g/a/ge d/e/dB G2 A|1 B/c/Be dBG A2 B c/d/cB:|2 B/c/Be dBG ABA ABd||
|:e2 a age dgg gfg|eab age- egg gfg|
eae g/a/ge d/e/dB G2 A|1 B/c/Be dBG ABA ABd:|2 B/c/Be dBG A2 B c2 B||

